X: 1
T:Off she goes
R:Jig
M:6/8
N:not Humpty Dumpty.
K:D
d2B AFA | Bcd A2A | B2G g2f | efd cBA | \
d2B AFA | Bcd A2A | BGB cde | fge d3 :|
|:f2d a2f | ec2 a2c | dcd fed | cde ABc | \
BGA Bcd | cAB cde | fga bge | edc d3 :|
